public/logos/TW.svg

<?xml version="1.0" encoding="UTF-8"?>
<svg xmlns="http://www.w3.org/2000/svg" xmlns:xlink="http://www.w3.org/1999/xlink" width="141.47pt" height="59pt" viewBox="0 0 141.47 59" version="1.1">
<defs>
<clipPath id="clip1">
  <path d="M 114 13 L 141.46875 13 L 141.46875 59 L 114 59 Z M 114 13 "/>
</clipPath>
</defs>
<g id="surface1">
<path style=" stroke:none;fill-rule:nonzero;fill:rgb(79.101562%,15.257263%,14.247131%);fill-opacity:1;" d="M 79.773438 13.242188 L 75.117188 13.242188 C 74.132812 13.242188 72.523438 13.851562 72.160156 15.773438 C 71.152344 20.933594 70.523438 26.589844 69.808594 31.636719 C 69.15625 26.832031 68.09375 20.398438 67.132812 15.445312 C 66.855469 14.269531 65.761719 13.242188 64.15625 13.242188 L 59.425781 13.242188 C 57.824219 13.242188 56.726562 14.269531 56.449219 15.445312 C 55.273438 20.429688 54.367188 26.796875 53.765625 31.582031 C 53.054688 26.550781 52.429688 20.914062 51.421875 15.773438 C 51.058594 13.851562 49.453125 13.242188 48.46875 13.242188 L 43.8125 13.242188 C 42.480469 13.242188 40.476562 14.230469 40.703125 16.621094 C 41.617188 24.863281 43.949219 35.574219 46.640625 45.304688 C 47.0625 47.101562 48.507812 47.785156 49.71875 47.785156 L 55.84375 47.78125 C 57.726562 47.78125 58.714844 46.277344 58.894531 45.28125 L 61.730469 32.335938 L 61.851562 32.335938 L 64.6875 45.28125 C 64.871094 46.277344 65.859375 47.78125 67.738281 47.78125 L 73.863281 47.785156 C 75.078125 47.785156 76.519531 47.101562 76.941406 45.304688 C 79.632812 35.574219 81.964844 24.863281 82.882812 16.621094 C 83.109375 14.230469 81.101562 13.242188 79.773438 13.242188 "/>
<path style=" stroke:none;fill-rule:nonzero;fill:rgb(79.101562%,15.257263%,14.247131%);fill-opacity:1;" d="M 4.46875 6.207031 C 4.46875 4.488281 5.859375 3.09375 7.578125 3.09375 L 13.257812 3.09375 C 14.972656 3.09375 16.367188 4.488281 16.367188 6.207031 L 16.367188 13.242188 L 19.371094 13.242188 C 20.546875 13.242188 21.5 14.199219 21.5 15.375 L 21.5 18.835938 C 21.5 20.011719 20.546875 20.964844 19.371094 20.964844 L 16.367188 20.964844 L 16.367188 37.246094 C 16.367188 39.226562 17.613281 39.925781 19.371094 39.925781 C 20.546875 39.925781 21.5 40.882812 21.5 42.058594 L 21.5 45.65625 C 21.5 46.832031 20.546875 47.785156 19.371094 47.785156 C 17.707031 47.90625 15.988281 47.96875 14.726562 47.96875 C 8.058594 47.96875 4.46875 43.886719 4.46875 36.230469 L 4.46875 20.964844 L 2.132812 20.964844 C 0.953125 20.964844 0 20.011719 0 18.835938 L 0 15.375 C 0 14.199219 0.953125 13.242188 2.132812 13.242188 L 4.46875 13.242188 "/>
<g clip-path="url(#clip1)" clip-rule="nonzero">
<path style=" stroke:none;fill-rule:nonzero;fill:rgb(79.101562%,15.257263%,14.247131%);fill-opacity:1;" d="M 130.878906 15.710938 C 131.175781 14.300781 132.425781 13.242188 133.921875 13.242188 L 138.355469 13.242188 C 140.074219 13.242188 141.464844 14.632812 141.464844 16.351562 C 141.464844 16.519531 141.449219 16.6875 141.425781 16.847656 C 139.855469 26.46875 136.417969 38.359375 133.289062 48.589844 C 130.90625 56.378906 127.796875 59 121.914062 59 C 120.476562 59 118.90625 58.976562 117.671875 58.910156 C 116.492188 58.910156 115.542969 57.957031 115.542969 56.777344 L 115.542969 53.085938 C 115.542969 51.910156 116.496094 50.957031 117.675781 50.957031 L 117.667969 50.957031 L 117.96875 50.957031 C 120.695312 50.957031 121.613281 49.042969 121.605469 48.34375 C 121.585938 47.199219 121.363281 46.683594 121.121094 45.789062 C 118.945312 38.824219 116.359375 27.738281 114.132812 16.996094 C 114.089844 16.785156 114.066406 16.574219 114.066406 16.351562 C 114.066406 14.632812 115.457031 13.242188 117.175781 13.242188 L 121.714844 13.242188 C 123.15625 13.242188 124.371094 14.226562 124.722656 15.558594 C 125.894531 19.863281 127.105469 28.003906 128.066406 33.003906 L 128.1875 33.003906 C 129.019531 27.417969 130.003906 19.703125 130.878906 15.710938 "/>
</g>
<path style=" stroke:none;fill-rule:nonzero;fill:rgb(79.101562%,15.257263%,14.247131%);fill-opacity:1;" d="M 100.289062 32.378906 C 99.816406 32.765625 99.183594 33.085938 98.527344 33.414062 C 96.96875 34.195312 95.207031 35.078125 94.976562 37.101562 C 94.871094 37.988281 95.082031 38.746094 95.578125 39.289062 C 96.003906 39.757812 96.640625 40.035156 97.269531 40.035156 C 99.082031 40.035156 100.289062 39.210938 100.289062 35.191406 M 93.148438 48.199219 C 87.394531 48.199219 83.675781 44.339844 83.675781 38.371094 C 83.675781 32.222656 87.949219 28.25 97.113281 25.871094 C 99.199219 25.375 100.082031 24.371094 100.082031 22.515625 C 100.082031 21.199219 99.15625 20.246094 97.871094 20.246094 C 96.71875 20.246094 95.882812 20.84375 95.636719 21.847656 C 95.195312 23.632812 93.988281 24.464844 91.839844 24.464844 L 88.828125 24.464844 C 86.675781 24.464844 85.339844 23.160156 85.339844 21.058594 C 85.339844 20.703125 85.394531 20.355469 85.5 20.03125 C 87.441406 13.421875 94.085938 12.433594 97.878906 12.433594 C 102.222656 12.433594 105.222656 13.140625 107.320312 14.652344 C 109.777344 16.425781 111.054688 19.363281 111.222656 23.636719 C 111.441406 28.714844 111.609375 38.824219 111.289062 44.398438 C 111.289062 46.253906 109.726562 47.78125 107.804688 47.78125 L 103.875 47.78125 C 102.085938 47.78125 100.683594 46.480469 100.414062 44.597656 C 98.917969 46.898438 96.320312 48.199219 93.148438 48.199219 "/>
<path style=" stroke:none;fill-rule:nonzero;fill:rgb(42.288208%,64.990234%,18.069458%);fill-opacity:1;" d="M 36.257812 4.066406 L 36.117188 3.773438 C 34.957031 1.53125 32.617188 0 29.921875 0 C 26.070312 0 22.949219 3.121094 22.949219 6.972656 C 22.949219 9.203125 23.996094 11.183594 25.625 12.460938 L 25.625 12.464844 C 27.613281 14.003906 29.648438 16.910156 24.847656 21.429688 C 23.941406 22.375 24.589844 23.117188 25.195312 23.511719 C 26.664062 24.464844 27.640625 24.324219 29.203125 23.511719 C 33.230469 21.417969 40.523438 12.949219 36.257812 4.066406 "/>
</g>
</svg>

<svg xmlns="http://www.w3.org/2000/svg" width="188.627" height="59pt" viewBox="0 0 141.47 59"><defs><clipPath id="a"><path d="M114 13h27.469v46H114Zm0 0"/></clipPath></defs><path d="M79.773 13.242h-4.656c-.984 0-2.594.61-2.957 2.531-1.008 5.16-1.637 10.817-2.351 15.864-.653-4.805-1.715-11.239-2.676-16.192-.278-1.175-1.371-2.203-2.977-2.203h-4.73c-1.602 0-2.7 1.028-2.977 2.203-1.176 4.985-2.082 11.352-2.683 16.137-.711-5.031-1.336-10.668-2.344-15.809-.363-1.921-1.969-2.53-2.953-2.53h-4.657c-1.332 0-3.335.987-3.109 3.378.914 8.242 3.246 18.953 5.938 28.684.422 1.797 1.867 2.48 3.078 2.48l6.125-.004c1.883 0 2.87-1.504 3.05-2.5l2.836-12.945h.122l2.836 12.945c.183.996 1.171 2.5 3.05 2.5l6.125.004c1.215 0 2.657-.683 3.078-2.48 2.692-9.73 5.024-20.442 5.942-28.684.226-2.39-1.781-3.379-3.11-3.379M4.469 6.207a3.11 3.11 0 0 1 3.11-3.113h5.679a3.113 3.113 0 0 1 3.11 3.113v7.035h3.003c1.176 0 2.129.957 2.129 2.133v3.46a2.13 2.13 0 0 1-2.129 2.13h-3.004v16.281c0 1.98 1.246 2.68 3.004 2.68 1.176 0 2.129.957 2.129 2.133v3.597a2.13 2.13 0 0 1-2.129 2.13 68 68 0 0 1-4.644.183c-6.668 0-10.258-4.082-10.258-11.739V20.965H2.133A2.13 2.13 0 0 1 0 18.835v-3.46c0-1.176.953-2.133 2.133-2.133h2.336" style="stroke:none;fill-rule:nonzero;fill:#ca2724;fill-opacity:1"/><g clip-path="url(#a)"><path d="M130.879 15.71a3.11 3.11 0 0 1 3.043-2.468h4.433a3.107 3.107 0 0 1 3.07 3.606c-1.57 9.62-5.007 21.511-8.136 31.742-2.383 7.789-5.492 10.41-11.375 10.41a85 85 0 0 1-4.242-.09 2.127 2.127 0 0 1-2.129-2.133v-3.691a2.13 2.13 0 0 1 2.133-2.129h-.008.3c2.727 0 3.645-1.914 3.637-2.613-.02-1.145-.242-1.66-.484-2.555-2.176-6.965-4.762-18.05-6.988-28.793a3.107 3.107 0 0 1 3.043-3.754h4.539c1.441 0 2.656.985 3.008 2.317 1.172 4.304 2.382 12.445 3.343 17.445h.121c.833-5.586 1.817-13.3 2.692-17.293" style="stroke:none;fill-rule:nonzero;fill:#ca2724;fill-opacity:1"/></g><path d="M100.29 32.379c-.474.387-1.106.707-1.763 1.035-1.558.781-3.32 1.664-3.55 3.688-.106.886.105 1.644.601 2.187a2.33 2.33 0 0 0 1.692.746c1.812 0 3.02-.824 3.02-4.844M93.147 48.2c-5.753 0-9.472-3.86-9.472-9.828 0-6.148 4.273-10.121 13.437-12.5 2.086-.496 2.969-1.5 2.969-3.355 0-1.317-.926-2.27-2.21-2.27-1.153 0-1.99.598-2.235 1.602-.442 1.785-1.649 2.617-3.797 2.617h-3.012c-2.152 0-3.488-1.305-3.488-3.406 0-.356.055-.704.16-1.028 1.941-6.61 8.586-7.597 12.379-7.597 4.344 0 7.344.707 9.441 2.218 2.457 1.774 3.735 4.711 3.903 8.985.218 5.078.386 15.187.066 20.761 0 1.856-1.562 3.383-3.484 3.383h-3.93c-1.79 0-3.191-1.3-3.46-3.183-1.497 2.3-4.095 3.601-7.267 3.601" style="stroke:none;fill-rule:nonzero;fill:#ca2724;fill-opacity:1"/><path d="m36.258 4.066-.14-.293a6.972 6.972 0 1 0-10.492 8.688l-.001.004c1.988 1.539 4.023 4.445-.777 8.965-.907.945-.258 1.687.347 2.082 1.47.953 2.446.812 4.008 0 4.027-2.094 11.32-10.563 7.055-19.446" style="stroke:none;fill-rule:nonzero;fill:#6ca62e;fill-opacity:1"/></svg>
